images/aWBTC.svg

<svg height="250" viewBox="0 0 250 250" width="250" xmlns="http://www.w3.org/2000/svg" xmlns:xlink="http://www.w3.org/1999/xlink"><linearGradient id="a" gradientUnits="userSpaceOnUse" x1="210.75" x2="51.5" y1="33.75" y2="221.5"><stop offset="0" stop-color="#b6509e"/><stop offset="1" stop-color="#2ebac6"/></linearGradient><path d="m250 125c0 69.035156-55.964844 125-125 125s-125-55.964844-125-125 55.964844-125 125-125 125 55.964844 125 125zm0 0" fill="#fff"/><path d="m125 250c-8.460938.003906-16.902344-.847656-25.195312-2.539062-15.988282-3.273438-31.175782-9.667969-44.699219-18.808594-20.09375-13.566406-35.828125-32.671875-45.285157-54.996094-3.195312-7.5625-5.632812-15.417969-7.28125-23.460938-3.386718-16.625-3.386718-33.761718 0-50.382812 3.273438-15.988281 9.664063-31.179688 18.808594-44.699219 13.566406-20.097656 32.671875-35.828125 54.996094-45.289062 7.5625-3.199219 15.417969-5.636719 23.460938-7.285157 16.625-3.386718 33.761718-3.386718 50.382812 0 15.988281 3.273438 31.179688 9.664063 44.699219 18.808594 20.097656 13.566406 35.828125 32.671875 45.289062 54.996094 3.195313 7.5625 5.636719 15.417969 7.285157 23.460938 3.386718 16.625 3.386718 33.761718 0 50.382812-3.273438 15.992188-9.664063 31.179688-18.808594 44.699219-13.566406 20.09375-32.671875 35.828125-54.996094 45.285156-7.5625 3.199219-15.417969 5.640625-23.460938 7.289063-8.292968 1.691406-16.734374 2.542968-25.195312 2.539062zm0-236.609375c-7.554688 0-15.089844.757813-22.492188 2.269531-14.277343 2.921875-27.839843 8.628906-39.910156 16.792969-17.941406 12.113281-31.984375 29.171875-40.429687 49.105469-2.855469 6.75-5.03125 13.769531-6.503907 20.949218-3.023437 14.839844-3.023437 30.140626 0 44.984376 2.925782 14.277343 8.632813 27.835937 16.796876 39.90625 12.113281 17.945312 29.171874 31.992187 49.105468 40.4375 6.75 2.855468 13.769532 5.03125 20.949219 6.503906 14.84375 3.023437 30.144531 3.023437 44.984375 0 14.277344-2.925782 27.839844-8.632813 39.910156-16.796875 17.9375-12.113281 31.976563-29.171875 40.421875-49.101563 2.855469-6.75 5.03125-13.769531 6.503907-20.949218 3.023437-14.84375 3.023437-30.144532 0-44.984376-2.925782-14.277343-8.632813-27.835937-16.796876-39.90625-12.113281-17.941406-29.167968-31.988281-49.097656-40.433593-6.75-2.855469-13.769531-5.03125-20.949218-6.503907-7.402344-1.511718-14.9375-2.273437-22.492188-2.273437zm0 0" fill="url(#a)"/><path d="m125.382812 29.019531c-53.21875-.214843-96.519531 43.113281-96.363281 96.019531.152344 52.90625 43.230469 95.953126 96.019531 95.941407 52.3125-.007813 95.574219-43.054688 95.988282-94.730469.421875-52.632812-41.570313-97.015625-95.644532-97.230469zm-.796874 184.230469c-48.339844-.195312-87.832032-39.789062-87.832032-88.355469 0-48.890625 39.640625-88.210937 88.957032-88.148437 47.878906.0625 88.28125 39.820312 87.582031 89.527344-.675781 48.242187-40.464844 87.171874-88.707031 86.976562zm0 0" fill="#282138"/><path d="m124.773438 207.28125c-19.769532-.054688-38.851563-7.234375-53.746094-20.230469-1.378906-1.175781-1.597656-1.84375-.175782-3.210937 3.820313-3.667969 3.75-3.742188 7.863282-.4375 27.734375 22.285156 67.851562 21.457031 95.027344-2.015625 1.292968-1.117188 1.929687-1.128907 3.117187.082031 4.070313 4.160156 4.125 4.117188-.574219 7.824219-15.039062 11.871093-32.15625 17.796875-51.511718 17.988281zm0 0" fill="#82808a"/><g fill="#83808a"><path d="m199.605469 122.386719c-.078125-16.003907-6.285157-32.128907-18.128907-46.113281-1.109374-1.3125-1.144531-1.925782.074219-3.117188 4.09375-4.015625 4.101563-4.113281 7.675781.390625 10.257813 12.640625 16.4375 28.101563 17.71875 44.328125 1.863282 23.117188-4.90625 43.421875-19.847656 61.089844-1.179687 1.398437-1.832031 1.605468-3.199218.1875-3.65625-3.796875-3.683594-3.691406-.441407-7.851563 10.65625-13.664062 16.171875-29.128906 16.148438-48.914062zm0 0"/><path d="m124.636719 42.667969c19.917969-.089844 39.195312 7.039062 54.261719 20.066406 1.550781 1.304687 1.765624 2.070313.164062 3.5625-3.683594 3.445313-3.570312 3.496094-7.5.402344-12.089844-9.773438-26.980469-15.4375-42.511719-16.175781-19.972656-.996094-37.507812 5.125-52.707031 18.011718-1.296875 1.097656-1.941406 1.136719-3.132812-.078125-4.0625-4.136719-4.117188-4.09375.398437-7.683593 14.445313-11.679688 32.453125-18.070313 51.027344-18.105469zm0 0"/><path d="m42.738281 124.53125c.1875-19.929688 6.878907-37.824219 19.996094-53.367188 1.433594-1.699218 2.230469-1.71875 3.738281-.097656 3.300782 3.546875 3.390625 3.457032.433594 7.175782-11.125 13.621093-16.972656 30.792968-16.472656 48.371093.238281 17.164063 6.558594 33.683594 17.832031 46.625 1.347656 1.582031 1.542969 2.425781-.085937 3.949219-3.847657 3.585938-3.757813 3.6875-7.023438-.390625-12.140625-15.148437-18.273438-32.433594-18.417969-52.265625zm0 0"/></g><path d="m163.496094 135.726562c-.753906-6.007812-4.382813-9.757812-9.960938-11.816406-.816406-.304687-1.820312-.273437-2.496094-1.179687 6.648438-3.777344 8.226563-9.816407 7.113282-16.773438-1.074219-6.699219-5.613282-10.359375-11.789063-12.339843-2.8125-.964844-5.730469-1.5625-8.691406-1.789063-1.320313-.074219-1.921875-.542969-1.855469-1.953125.097656-2.058594.023438-4.125.023438-6.1875 0-7.722656 0-7.6875-7.734375-7.296875-1.3125.066406-1.699219.488281-1.667969 1.742187.066406 2.636719.019531 5.28125.019531 7.921876 0 5.273437 0 5.207031-5.214843 5.273437-1.628907.023437-2.148438-.46875-2.101563-2.09375.105469-3.710937-.011719-7.425781.058594-11.140625.023437-1.296875-.402344-1.75-1.699219-1.695312-1.976562.089843-3.964844.097656-5.941406 0-1.390625-.070313-1.867188.375-1.832032 1.804687.085938 3.792969-.046874 7.59375.0625 11.386719.046876 1.617187-.421874 2.148437-2.070312 2.113281-4.289062-.105469-8.582031-.0625-12.875-.027344-4.421875.035157-3.832031-.613281-3.855469 3.738281-.03125 6.210938-.007812 6.210938 6.289063 6.261719 4.21875.035157 5.863281 1.652344 5.871094 5.816407.011718 7.015624.011718 14.027343 0 21.042968 0 5.695313.011718 11.390625 0 17.085938-.007813 3.75-.976563 4.734375-4.628907 4.769531-1.238281.054687-2.476562.046875-3.710937-.023437-.566406-.15625-1.167969-.03125-1.625.332031-.460938.363281-.714844.925781-.691406 1.511719-.34375 2.53125-.703126 5.0625-1.199219 7.566406-.28125 1.425781.070312 1.871094 1.546875 1.835937 3.710937-.089843 7.429687-.054687 11.140625-.023437 5.71875.050781 5.71875.066406 5.71875 5.664062 0 .90625-.046875 1.820313.011719 2.722656.144531 2.28125-1.003907 5.246094.464843 6.660157 1.453125 1.394531 4.40625.234375 6.6875.449219 1.683594.15625 2.328125-.382813 2.265625-2.167969-.132812-3.546875.066406-7.101563-.082031-10.644531-.078125-1.894532.558594-2.367188 2.378906-2.34375 5.03125.050781 5.03125-.03125 5.03125 5.117187 0 .90625-.050781 1.816406.011719 2.722656.167969 2.355469-1.058594 5.433594.515625 6.875 1.539063 1.410157 4.578125.234375 6.945313.441407 1.570312.140624 1.972656-.523438 1.941406-1.988282-.082032-3.546875.082031-7.101562-.070313-10.644531-.085937-2.039063.351563-2.898437 2.636719-2.960937 3.625-.15625 7.21875-.761719 10.695312-1.804688 11.839844-3.355469 15.792969-12.578125 14.363282-23.960938zm-44.1875-24.332031c0-2.46875 0-4.9375 0-7.40625 0-.839843-.042969-1.695312 1.195312-1.71875 4.851563-.097656 9.714844-.308593 14.390625 1.402344 3.960938 1.445313 6.019531 4.109375 6.035157 7.8125.015624 3.636719-2.070313 6.277344-6.109376 7.730469-4.582031 1.652344-9.355468 1.609375-14.128906 1.640625-1.320312.007812-1.398437-.824219-1.390625-1.808594.011719-2.546875.003907-5.097656.003907-7.648437zm22.308594 35.65625c-2.929688 2.074219-6.371094 2.722657-9.804688 3.085938-3.515625.371093-7.078125.304687-10.613281.515625-1.480469.089844-2.058594-.355469-1.996094-1.921875.117187-2.800781.035156-5.609375.035156-8.414063h.070313c0-2.804687.03125-5.609375-.011719-8.414062-.019531-1.191406.292969-1.816406 1.648437-1.832032 5.363282-.0625 10.714844-.074218 15.960938 1.28125 1.6875.394532 3.285156 1.101563 4.714844 2.082032 2.28125 1.515625 3.652344 4.074218 3.652344 6.8125-.003907 2.738281-1.378907 5.296875-3.660157 6.808594zm0 0" fill="#ef9142"/></svg>

<svg xmlns="http://www.w3.org/2000/svg" xmlns:xlink="http://www.w3.org/1999/xlink" width="250px" height="250px" viewBox="0 0 250 250" version="1.1">
<defs>
<linearGradient id="linear0" gradientUnits="userSpaceOnUse" x1="0.843" y1="0.135" x2="0.206" y2="0.886" gradientTransform="matrix(250,0,0,250,0,0)">
<stop offset="0" style="stop-color:rgb(71.372551%,31.37255%,61.960787%);stop-opacity:1;"/>
<stop offset="1" style="stop-color:rgb(18.039216%,72.941178%,77.64706%);stop-opacity:1;"/>
</linearGradient>
</defs>
<g id="surface1">
<path style=" stroke:none;fill-rule:nonzero;fill:rgb(100%,100%,100%);fill-opacity:1;" d="M 250 125 C 250 194.035156 194.035156 250 125 250 C 55.964844 250 0 194.035156 0 125 C 0 55.964844 55.964844 0 125 0 C 194.035156 0 250 55.964844 250 125 Z M 250 125 "/>
<path style=" stroke:none;fill-rule:nonzero;fill:url(#linear0);" d="M 125 250 C 116.539062 250.003906 108.097656 249.152344 99.804688 247.460938 C 83.816406 244.1875 68.628906 237.792969 55.105469 228.652344 C 35.011719 215.085938 19.277344 195.980469 9.820312 173.65625 C 6.625 166.09375 4.1875 158.238281 2.539062 150.195312 C -0.847656 133.570312 -0.847656 116.433594 2.539062 99.8125 C 5.8125 83.824219 12.203125 68.632812 21.347656 55.113281 C 34.914062 35.015625 54.019531 19.285156 76.34375 9.824219 C 83.90625 6.625 91.761719 4.1875 99.804688 2.539062 C 116.429688 -0.847656 133.566406 -0.847656 150.1875 2.539062 C 166.175781 5.8125 181.367188 12.203125 194.886719 21.347656 C 214.984375 34.914062 230.714844 54.019531 240.175781 76.34375 C 243.371094 83.90625 245.8125 91.761719 247.460938 99.804688 C 250.847656 116.429688 250.847656 133.566406 247.460938 150.1875 C 244.1875 166.179688 237.796875 181.367188 228.652344 194.886719 C 215.085938 214.980469 195.980469 230.714844 173.65625 240.171875 C 166.09375 243.371094 158.238281 245.8125 150.195312 247.460938 C 141.902344 249.152344 133.460938 250.003906 125 250 Z M 125 13.390625 C 117.445312 13.390625 109.910156 14.148438 102.507812 15.660156 C 88.230469 18.582031 74.667969 24.289062 62.597656 32.453125 C 44.65625 44.566406 30.613281 61.625 22.167969 81.558594 C 19.3125 88.308594 17.136719 95.328125 15.664062 102.507812 C 12.640625 117.347656 12.640625 132.648438 15.664062 147.492188 C 18.589844 161.769531 24.296875 175.328125 32.460938 187.398438 C 44.574219 205.34375 61.632812 219.390625 81.566406 227.835938 C 88.316406 230.691406 95.335938 232.867188 102.515625 234.339844 C 117.359375 237.363281 132.660156 237.363281 147.5 234.339844 C 161.777344 231.414062 175.339844 225.707031 187.410156 217.542969 C 205.347656 205.429688 219.386719 188.371094 227.832031 168.441406 C 230.6875 161.691406 232.863281 154.671875 234.335938 147.492188 C 237.359375 132.648438 237.359375 117.347656 234.335938 102.507812 C 231.410156 88.230469 225.703125 74.671875 217.539062 62.601562 C 205.425781 44.660156 188.371094 30.613281 168.441406 22.167969 C 161.691406 19.3125 154.671875 17.136719 147.492188 15.664062 C 140.089844 14.152344 132.554688 13.390625 125 13.390625 Z M 125 13.390625 "/>
<path style=" stroke:none;fill-rule:nonzero;fill:rgb(15.686275%,12.941177%,21.960784%);fill-opacity:1;" d="M 125.382812 29.019531 C 72.164062 28.804688 28.863281 72.132812 29.019531 125.039062 C 29.171875 177.945312 72.25 220.992188 125.039062 220.980469 C 177.351562 220.972656 220.613281 177.925781 221.027344 126.25 C 221.449219 73.617188 179.457031 29.234375 125.382812 29.019531 Z M 124.585938 213.25 C 76.246094 213.054688 36.753906 173.460938 36.753906 124.894531 C 36.753906 76.003906 76.394531 36.683594 125.710938 36.746094 C 173.589844 36.808594 213.992188 76.566406 213.292969 126.273438 C 212.617188 174.515625 172.828125 213.445312 124.585938 213.25 Z M 124.585938 213.25 "/>
<path style=" stroke:none;fill-rule:nonzero;fill:rgb(50.980395%,50.196081%,54.11765%);fill-opacity:1;" d="M 124.773438 207.28125 C 105.003906 207.226562 85.921875 200.046875 71.027344 187.050781 C 69.648438 185.875 69.429688 185.207031 70.851562 183.839844 C 74.671875 180.171875 74.601562 180.097656 78.714844 183.402344 C 106.449219 205.6875 146.566406 204.859375 173.742188 181.386719 C 175.035156 180.269531 175.671875 180.257812 176.859375 181.46875 C 180.929688 185.628906 180.984375 185.585938 176.285156 189.292969 C 161.246094 201.164062 144.128906 207.089844 124.773438 207.28125 Z M 124.773438 207.28125 "/>
<path style=" stroke:none;fill-rule:nonzero;fill:rgb(51.372552%,50.196081%,54.11765%);fill-opacity:1;" d="M 199.605469 122.386719 C 199.527344 106.382812 193.320312 90.257812 181.476562 76.273438 C 180.367188 74.960938 180.332031 74.347656 181.550781 73.15625 C 185.644531 69.140625 185.652344 69.042969 189.226562 73.546875 C 199.484375 86.1875 205.664062 101.648438 206.945312 117.875 C 208.808594 140.992188 202.039062 161.296875 187.097656 178.964844 C 185.917969 180.363281 185.265625 180.570312 183.898438 179.152344 C 180.242188 175.355469 180.214844 175.460938 183.457031 171.300781 C 194.113281 157.636719 199.628906 142.171875 199.605469 122.386719 Z M 199.605469 122.386719 "/>
<path style=" stroke:none;fill-rule:nonzero;fill:rgb(51.372552%,50.196081%,54.11765%);fill-opacity:1;" d="M 124.636719 42.667969 C 144.554688 42.578125 163.832031 49.707031 178.898438 62.734375 C 180.449219 64.039062 180.664062 64.804688 179.0625 66.296875 C 175.378906 69.742188 175.492188 69.792969 171.5625 66.699219 C 159.472656 56.925781 144.582031 51.261719 129.050781 50.523438 C 109.078125 49.527344 91.542969 55.648438 76.34375 68.535156 C 75.046875 69.632812 74.402344 69.671875 73.210938 68.457031 C 69.148438 64.320312 69.09375 64.363281 73.609375 60.773438 C 88.054688 49.09375 106.0625 42.703125 124.636719 42.667969 Z M 124.636719 42.667969 "/>
<path style=" stroke:none;fill-rule:nonzero;fill:rgb(51.372552%,50.196081%,54.11765%);fill-opacity:1;" d="M 42.738281 124.53125 C 42.925781 104.601562 49.617188 86.707031 62.734375 71.164062 C 64.167969 69.464844 64.964844 69.445312 66.472656 71.066406 C 69.773438 74.613281 69.863281 74.523438 66.90625 78.242188 C 55.78125 91.863281 49.933594 109.035156 50.433594 126.613281 C 50.671875 143.777344 56.992188 160.296875 68.265625 173.238281 C 69.613281 174.820312 69.808594 175.664062 68.179688 177.1875 C 64.332031 180.773438 64.421875 180.875 61.15625 176.796875 C 49.015625 161.648438 42.882812 144.363281 42.738281 124.53125 Z M 42.738281 124.53125 "/>
<path style=" stroke:none;fill-rule:nonzero;fill:rgb(93.725491%,56.862748%,25.882354%);fill-opacity:1;" d="M 163.496094 135.726562 C 162.742188 129.71875 159.113281 125.96875 153.535156 123.910156 C 152.71875 123.605469 151.714844 123.636719 151.039062 122.730469 C 157.6875 118.953125 159.265625 112.914062 158.152344 105.957031 C 157.078125 99.257812 152.539062 95.597656 146.363281 93.617188 C 143.550781 92.652344 140.632812 92.054688 137.671875 91.828125 C 136.351562 91.753906 135.75 91.285156 135.816406 89.875 C 135.914062 87.816406 135.839844 85.75 135.839844 83.6875 C 135.839844 75.964844 135.839844 76 128.105469 76.390625 C 126.792969 76.457031 126.40625 76.878906 126.4375 78.132812 C 126.503906 80.769531 126.457031 83.414062 126.457031 86.054688 C 126.457031 91.328125 126.457031 91.261719 121.242188 91.328125 C 119.613281 91.351562 119.09375 90.859375 119.140625 89.234375 C 119.246094 85.523438 119.128906 81.808594 119.199219 78.09375 C 119.222656 76.796875 118.796875 76.34375 117.5 76.398438 C 115.523438 76.488281 113.535156 76.496094 111.558594 76.398438 C 110.167969 76.328125 109.691406 76.773438 109.726562 78.203125 C 109.8125 81.996094 109.679688 85.796875 109.789062 89.589844 C 109.835938 91.207031 109.367188 91.738281 107.71875 91.703125 C 103.429688 91.597656 99.136719 91.640625 94.84375 91.675781 C 90.421875 91.710938 91.011719 91.0625 90.988281 95.414062 C 90.957031 101.625 90.980469 101.625 97.277344 101.675781 C 101.496094 101.710938 103.140625 103.328125 103.148438 107.492188 C 103.160156 114.507812 103.160156 121.519531 103.148438 128.535156 C 103.148438 134.230469 103.160156 139.925781 103.148438 145.621094 C 103.140625 149.371094 102.171875 150.355469 98.519531 150.390625 C 97.28125 150.445312 96.042969 150.4375 94.808594 150.367188 C 94.242188 150.210938 93.640625 150.335938 93.183594 150.699219 C 92.722656 151.0625 92.46875 151.625 92.492188 152.210938 C 92.148438 154.742188 91.789062 157.273438 91.292969 159.777344 C 91.011719 161.203125 91.363281 161.648438 92.839844 161.613281 C 96.550781 161.523438 100.269531 161.558594 103.980469 161.589844 C 109.699219 161.640625 109.699219 161.65625 109.699219 167.253906 C 109.699219 168.160156 109.652344 169.074219 109.710938 169.976562 C 109.855469 172.257812 108.707031 175.222656 110.175781 176.636719 C 111.628906 178.03125 114.582031 176.871094 116.863281 177.085938 C 118.546875 177.242188 119.191406 176.703125 119.128906 174.917969 C 118.996094 171.371094 119.195312 167.816406 119.046875 164.273438 C 118.96875 162.378906 119.605469 161.90625 121.425781 161.929688 C 126.457031 161.980469 126.457031 161.898438 126.457031 167.046875 C 126.457031 167.953125 126.40625 168.863281 126.46875 169.769531 C 126.636719 172.125 125.410156 175.203125 126.984375 176.644531 C 128.523438 178.054688 131.5625 176.878906 133.929688 177.085938 C 135.5 177.226562 135.902344 176.5625 135.871094 175.097656 C 135.789062 171.550781 135.953125 167.996094 135.800781 164.453125 C 135.714844 162.414062 136.152344 161.554688 138.4375 161.492188 C 142.0625 161.335938 145.65625 160.730469 149.132812 159.6875 C 160.972656 156.332031 164.925781 147.109375 163.496094 135.726562 Z M 119.308594 111.394531 C 119.308594 108.925781 119.308594 106.457031 119.308594 103.988281 C 119.308594 103.148438 119.265625 102.292969 120.503906 102.269531 C 125.355469 102.171875 130.21875 101.960938 134.894531 103.671875 C 138.855469 105.117188 140.914062 107.78125 140.929688 111.484375 C 140.945312 115.121094 138.859375 117.761719 134.820312 119.214844 C 130.238281 120.867188 125.464844 120.824219 120.691406 120.855469 C 119.371094 120.863281 119.292969 120.03125 119.300781 119.046875 C 119.3125 116.5 119.304688 113.949219 119.304688 111.398438 Z M 141.617188 147.050781 C 138.6875 149.125 135.246094 149.773438 131.8125 150.136719 C 128.296875 150.507812 124.734375 150.441406 121.199219 150.652344 C 119.71875 150.742188 119.140625 150.296875 119.203125 148.730469 C 119.320312 145.929688 119.238281 143.121094 119.238281 140.316406 L 119.308594 140.316406 C 119.308594 137.511719 119.339844 134.707031 119.296875 131.902344 C 119.277344 130.710938 119.589844 130.085938 120.945312 130.070312 C 126.308594 130.007812 131.660156 129.996094 136.90625 131.351562 C 138.59375 131.746094 140.191406 132.453125 141.621094 133.433594 C 143.902344 134.949219 145.273438 137.507812 145.273438 140.246094 C 145.269531 142.984375 143.894531 145.542969 141.613281 147.054688 Z M 141.617188 147.050781 "/>
</g>
</svg>
